docs/img/dist/icon-faq-02.svg

<svg width="20" height="24" viewBox="0 0 20 24" fill="none" xmlns="http://www.w3.org/2000/svg">
<path fill-rule="evenodd" clip-rule="evenodd" d="M1.75 13.5V15.75H18.25V13.5H1.75ZM1.75 12H18.25C18.6478 12 19.0294 12.158 19.3107 12.4393C19.592 12.7206 19.75 13.1022 19.75 13.5V15.75C19.75 16.1478 19.592 16.5294 19.3107 16.8107C19.0294 17.092 18.6478 17.25 18.25 17.25H1.75C1.35218 17.25 0.970644 17.092 0.68934 16.8107C0.408035 16.5294 0.25 16.1478 0.25 15.75V13.5C0.25 13.1022 0.408035 12.7206 0.68934 12.4393C0.970644 12.158 1.35218 12 1.75 12ZM4 13.5V15H5.5V13.5H4ZM9.25 13.5V15H10.75V13.5H9.25ZM6.625 14.25V15.75H8.125V14.25H6.625ZM14.5 13.5V15H16V13.5H14.5ZM11.875 14.25V15.75H13.375V14.25H11.875ZM3.25 21.975C3.50859 21.975 3.75658 21.8723 3.93943 21.6894C4.12228 21.5066 4.225 21.2586 4.225 21C4.225 20.7414 4.12228 20.4934 3.93943 20.3106C3.75658 20.1277 3.50859 20.025 3.25 20.025C2.99141 20.025 2.74342 20.1277 2.56057 20.3106C2.37772 20.4934 2.275 20.7414 2.275 21C2.275 21.2586 2.37772 21.5066 2.56057 21.6894C2.74342 21.8723 2.99141 21.975 3.25 21.975ZM3.25 23.25C2.65326 23.25 2.08097 23.0129 1.65901 22.591C1.23705 22.169 1 21.5967 1 21C1 20.4033 1.23705 19.831 1.65901 19.409C2.08097 18.9871 2.65326 18.75 3.25 18.75C3.84674 18.75 4.41903 18.9871 4.84099 19.409C5.26295 19.831 5.5 20.4033 5.5 21C5.5 21.5967 5.26295 22.169 4.84099 22.591C4.41903 23.0129 3.84674 23.25 3.25 23.25ZM10 21.9C10.1482 21.9617 10.3093 21.9859 10.469 21.9705C10.6288 21.955 10.7823 21.9003 10.9158 21.8112C11.0494 21.7222 11.1589 21.6016 11.2346 21.4601C11.3104 21.3185 11.35 21.1605 11.35 21C11.35 20.8395 11.3104 20.6815 11.2346 20.5399C11.1589 20.3984 11.0494 20.2778 10.9158 20.1888C10.7823 20.0997 10.6288 20.045 10.469 20.0295C10.3093 20.0141 10.1482 20.0383 10 20.1C9.82232 20.174 9.67053 20.299 9.56375 20.4592C9.45698 20.6193 9.4 20.8075 9.4 21C9.4 21.1925 9.45698 21.3807 9.56375 21.5408C9.67053 21.701 9.82232 21.826 10 21.9ZM10 23.25C9.40326 23.25 8.83097 23.0129 8.40901 22.591C7.98705 22.169 7.75 21.5967 7.75 21C7.75 20.4033 7.98705 19.831 8.40901 19.409C8.83097 18.9871 9.40326 18.75 10 18.75C10.5967 18.75 11.169 18.9871 11.591 19.409C12.0129 19.831 12.25 20.4033 12.25 21C12.25 21.5967 12.0129 22.169 11.591 22.591C11.169 23.0129 10.5967 23.25 10 23.25ZM16.75 21.9C16.8982 21.9617 17.0593 21.9859 17.219 21.9705C17.3788 21.955 17.5323 21.9003 17.6658 21.8112C17.7994 21.7222 17.9089 21.6016 17.9846 21.4601C18.0604 21.3185 18.1 21.1605 18.1 21C18.1 20.8395 18.0604 20.6815 17.9846 20.5399C17.9089 20.3984 17.7994 20.2778 17.6658 20.1888C17.5323 20.0997 17.3788 20.045 17.219 20.0295C17.0593 20.0141 16.8982 20.0383 16.75 20.1C16.5723 20.174 16.4205 20.299 16.3138 20.4592C16.207 20.6193 16.15 20.8075 16.15 21C16.15 21.1925 16.207 21.3807 16.3138 21.5408C16.4205 21.701 16.5723 21.826 16.75 21.9ZM16.75 23.25C16.1533 23.25 15.581 23.0129 15.159 22.591C14.7371 22.169 14.5 21.5967 14.5 21C14.5 20.4033 14.7371 19.831 15.159 19.409C15.581 18.9871 16.1533 18.75 16.75 18.75C17.3467 18.75 17.919 18.9871 18.341 19.409C18.7629 19.831 19 20.4033 19 21C19 21.5967 18.7629 22.169 18.341 22.591C17.919 23.0129 17.3467 23.25 16.75 23.25ZM2.5 7.2V1.5C2.5 1.30109 2.57902 1.11032 2.71967 0.96967C2.86032 0.829018 3.05109 0.75 3.25 0.75C3.44891 0.75 3.63968 0.829018 3.78033 0.96967C3.92098 1.11032 4 1.30109 4 1.5V7.2L4.75 6.3C4.89443 6.19168 5.07308 6.13909 5.25317 6.15189C5.43325 6.16468 5.60267 6.24201 5.73033 6.36967C5.85799 6.49733 5.93532 6.66675 5.94811 6.84683C5.96091 7.02692 5.90832 7.20557 5.8 7.35L3.7 9.45C3.65736 9.50686 3.60685 9.55736 3.55 9.6C3.42018 9.69737 3.26228 9.75 3.1 9.75C2.93772 9.75 2.77982 9.69737 2.65 9.6C2.59315 9.55736 2.54264 9.50686 2.5 9.45L0.475 7.425C0.366678 7.28057 0.314089 7.10192 0.326887 6.92183C0.339685 6.74175 0.417012 6.57233 0.54467 6.44467C0.672328 6.31701 0.841751 6.23969 1.02183 6.22689C1.20192 6.21409 1.38057 6.26668 1.525 6.375L2.5 7.2ZM16 7.2V1.5C16 1.30109 16.079 1.11032 16.2197 0.96967C16.3603 0.829018 16.5511 0.75 16.75 0.75C16.9489 0.75 17.1397 0.829018 17.2803 0.96967C17.421 1.11032 17.5 1.30109 17.5 1.5V7.2L18.25 6.3C18.3944 6.19168 18.5731 6.13909 18.7532 6.15189C18.9332 6.16468 19.1027 6.24201 19.2303 6.36967C19.358 6.49733 19.4353 6.66675 19.4481 6.84683C19.4609 7.02692 19.4083 7.20557 19.3 7.35L17.2 9.45C17.1574 9.50686 17.1069 9.55736 17.05 9.6C16.9202 9.69737 16.7623 9.75 16.6 9.75C16.4377 9.75 16.2798 9.69737 16.15 9.6C16.0931 9.55736 16.0426 9.50686 16 9.45L13.9 7.35C13.814 7.28553 13.7429 7.20334 13.6915 7.10899C13.6401 7.01465 13.6095 6.91035 13.6019 6.80317C13.5943 6.69598 13.6098 6.58841 13.6473 6.48774C13.6849 6.38707 13.7437 6.29565 13.8197 6.21967C13.8957 6.14369 13.9871 6.08492 14.0877 6.04735C14.1884 6.00977 14.296 5.99427 14.4032 6.00189C14.5104 6.0095 14.6146 6.04006 14.709 6.0915C14.8033 6.14293 14.8855 6.21404 14.95 6.3L16 7.2Z" fill="#202020"/>
<path fill-rule="evenodd" clip-rule="evenodd" d="M9.24999 8.7V3C9.24999 2.80109 9.32901 2.61032 9.46966 2.46967C9.61031 2.32902 9.80108 2.25 9.99999 2.25C10.1989 2.25 10.3897 2.32902 10.5303 2.46967C10.671 2.61032 10.75 2.80109 10.75 3V8.7L11.575 7.8C11.7194 7.69168 11.8981 7.63909 12.0782 7.65189C12.2582 7.66468 12.4277 7.74201 12.5553 7.86967C12.683 7.99733 12.7603 8.16675 12.7731 8.34683C12.7859 8.52692 12.7333 8.70557 12.625 8.85L10.525 10.95C10.4823 11.0069 10.4318 11.0574 10.375 11.1C10.2452 11.1974 10.0873 11.25 9.92499 11.25C9.76271 11.25 9.60481 11.1974 9.47499 11.1C9.41813 11.0574 9.36763 11.0069 9.32499 10.95L7.22499 8.85C7.13903 8.78553 7.06792 8.70334 7.01649 8.60899C6.96505 8.51465 6.93449 8.41035 6.92687 8.30317C6.91926 8.19598 6.93476 8.08841 6.97233 7.98774C7.00991 7.88707 7.06868 7.79565 7.14466 7.71967C7.22064 7.64369 7.31206 7.58492 7.41273 7.54735C7.5134 7.50977 7.62097 7.49427 7.72816 7.50189C7.83534 7.5095 7.93963 7.54006 8.03398 7.5915C8.12832 7.64293 8.21052 7.71404 8.27499 7.8L9.17499 8.7H9.24999Z" fill="#D61635"/>
</svg>

<svg width="20" height="24" fill="none" xmlns="http://www.w3.org/2000/svg"><path fill-rule="evenodd" clip-rule="evenodd" d="M1.75 13.5v2.25h16.5V13.5H1.75zm0-1.5h16.5a1.5 1.5 0 011.5 1.5v2.25a1.5 1.5 0 01-1.5 1.5H1.75a1.5 1.5 0 01-1.5-1.5V13.5a1.5 1.5 0 011.5-1.5zM4 13.5V15h1.5v-1.5H4zm5.25 0V15h1.5v-1.5h-1.5zm-2.625.75v1.5h1.5v-1.5h-1.5zm7.875-.75V15H16v-1.5h-1.5zm-2.625.75v1.5h1.5v-1.5h-1.5zM3.25 21.975a.975.975 0 100-1.95.975.975 0 000 1.95zm0 1.275a2.25 2.25 0 110-4.5 2.25 2.25 0 010 4.5zM10 21.9a.976.976 0 001.235-1.36A.974.974 0 1010 21.9zm0 1.35a2.25 2.25 0 110-4.5 2.25 2.25 0 010 4.5zm6.75-1.35a.976.976 0 001.235-1.36.974.974 0 10-1.235 1.36zm0 1.35a2.25 2.25 0 110-4.5 2.25 2.25 0 010 4.5zM2.5 7.2V1.5a.75.75 0 011.5 0v5.7l.75-.9A.75.75 0 015.8 7.35l-2.1 2.1a.75.75 0 01-1.2 0L.475 7.425a.75.75 0 011.05-1.05L2.5 7.2zm13.5 0V1.5a.75.75 0 111.5 0v5.7l.75-.9a.75.75 0 011.05 1.05l-2.1 2.1a.748.748 0 01-1.05.15.748.748 0 01-.15-.15l-2.1-2.1a.75.75 0 111.05-1.05l1.05.9z" fill="#202020"/><path fill-rule="evenodd" clip-rule="evenodd" d="M9.25 8.7V3a.75.75 0 011.5 0v5.7l.825-.9a.75.75 0 011.05 1.05l-2.1 2.1a.75.75 0 01-1.2 0l-2.1-2.1a.75.75 0 111.05-1.05l.9.9h.075z" fill="#D61635"/></svg>
